static/assets/img/icons/theme/home/сurtains.svg

<svg height="24" viewBox="0 0 24 24" width="24" xmlns="http://www.w3.org/2000/svg"><g fill="none" fill-rule="evenodd"><path d="m0 0h24v24h-24z" opacity="0"/><g fill="#000"><path d="m3 4c0-.55228475.44771525-1 1-1h7v2c0 4.418278-3.581722 8-8 8zm18 0v9c-4.418278 0-8-3.581722-8-8v-2h7c.5522847 0 1 .44771525 1 1z" opacity=".3"/><path d="m4 21c-.55228475 0-1-.4477153-1-1v-7c3.3137085 0 6 2.6862915 6 6v2zm16 0h-5v-2c0-3.3137085 2.6862915-6 6-6v7c0 .5522847-.4477153 1-1 1z"/></g></g></svg>

<svg width="24px" height="24px" viewBox="0 0 24 24" version="1.1" xmlns="http://www.w3.org/2000/svg" xmlns:xlink="http://www.w3.org/1999/xlink">
    <title>Icon For Сurtains</title>
    <g stroke="none" stroke-width="1" fill="none" fill-rule="evenodd">
        <rect opacity="0" x="0" y="0" width="24" height="24"></rect>
        <path d="M3,4 C3,3.44771525 3.44771525,3 4,3 L11,3 L11,5 C11,9.418278 7.418278,13 3,13 L3,4 Z M21,4 L21,13 C16.581722,13 13,9.418278 13,5 L13,3 L20,3 C20.5522847,3 21,3.44771525 21,4 Z" fill="#000000" opacity="0.3"></path>
        <path d="M4,21 C3.44771525,21 3,20.5522847 3,20 L3,13 C6.3137085,13 9,15.6862915 9,19 L9,21 L4,21 Z M20,21 L15,21 L15,19 C15,15.6862915 17.6862915,13 21,13 L21,20 C21,20.5522847 20.5522847,21 20,21 Z" fill="#000000"></path>
    </g>
</svg>
